packages/core/assets/Icons/arrow_angle_up_left.svg

<svg viewBox="0 0 20 20" fill="none" xmlns="http://www.w3.org/2000/svg">
<path d="M6.52083 8.33335L8.9375 10.75C9.10417 10.9167 9.18403 11.1111 9.17708 11.3334C9.17014 11.5556 9.09028 11.75 8.9375 11.9167C8.77083 12.0834 8.57639 12.1702 8.35417 12.1771C8.13194 12.184 7.9375 12.1042 7.77083 11.9375L3.91667 8.08335C3.83333 8.00002 3.77431 7.90974 3.73958 7.81252C3.70486 7.7153 3.6875 7.61113 3.6875 7.50002C3.6875 7.38891 3.70486 7.28474 3.73958 7.18752C3.77431 7.0903 3.83333 7.00002 3.91667 6.91669L7.72917 3.10419C7.89583 2.93752 8.09375 2.85419 8.32292 2.85419C8.55208 2.85419 8.75 2.93752 8.91667 3.10419C9.08333 3.27085 9.16667 3.4653 9.16667 3.68752C9.16667 3.90974 9.08333 4.10419 8.91667 4.27085L6.52083 6.66669H14.1667C14.625 6.66669 15.0174 6.82988 15.3437 7.15627C15.6701 7.48266 15.8333 7.87502 15.8333 8.33335V15.8334C15.8333 16.0695 15.7535 16.2674 15.5937 16.4271C15.434 16.5868 15.2361 16.6667 15 16.6667C14.7639 16.6667 14.566 16.5868 14.4062 16.4271C14.2465 16.2674 14.1667 16.0695 14.1667 15.8334V8.33335H6.52083Z" fill="currentColor"/>
</svg>

<svg xmlns="http://www.w3.org/2000/svg" width="20" height="20" fill="none" viewBox="0 0 20 20">
  <path fill="#201F1F" d="m6.52 8.333 2.418 2.417a.763.763 0 0 1 .24.583.879.879 0 0 1-.24.584.838.838 0 0 1-.584.26.763.763 0 0 1-.583-.24L3.917 8.084a.731.731 0 0 1-.177-.27.922.922 0 0 1-.053-.313c0-.111.018-.215.053-.312a.731.731 0 0 1 .177-.271l3.812-3.813a.811.811 0 0 1 .594-.25c.23 0 .427.084.594.25a.8.8 0 0 1 .25.584.8.8 0 0 1-.25.583L6.52 6.667h7.646c.458 0 .85.163 1.177.49.326.326.49.718.49 1.176v7.5c0 .237-.08.434-.24.594a.806.806 0 0 1-.594.24.807.807 0 0 1-.594-.24.806.806 0 0 1-.24-.594v-7.5H6.522Z"/>
</svg>
